build/img/SVG/pencil.svg

<?xml version="1.0" encoding="utf-8"?>
<!-- Generated by IcoMoon.io -->
<!DOCTYPE svg PUBLIC "-//W3C//DTD SVG 1.1//EN" "http://www.w3.org/Graphics/SVG/1.1/DTD/svg11.dtd">
<svg version="1.1" xmlns="http://www.w3.org/2000/svg" xmlns:xlink="http://www.w3.org/1999/xlink" width="48" height="56" viewBox="0 0 48 56">
<path fill="#444444" d="M11.344 48l2.844-2.844-7.344-7.344-2.844 2.844v3.344h4v4h3.344zM27.688 19q0-0.687-0.687-0.687-0.312 0-0.531 0.219l-16.937 16.937q-0.219 0.219-0.219 0.531 0 0.687 0.687 0.687 0.312 0 0.531-0.219l16.937-16.937q0.219-0.219 0.219-0.531zM26 13l13 13-26 26h-13v-13zM47.344 16q0 1.656-1.156 2.813l-5.187 5.187-13-13 5.187-5.156q1.125-1.187 2.813-1.187 1.656 0 2.844 1.187l7.344 7.312q1.156 1.219 1.156 2.844z"></path>
</svg>

<svg xmlns="http://www.w3.org/2000/svg" width="48" height="56" viewBox="0 0 48 56"><path fill="#444" d="M11.344 48l2.844-2.844-7.344-7.344L4 40.656V44h4v4h3.344zm16.344-29q0-.687-.687-.687-.31 0-.53.22L9.533 35.468q-.22.218-.22.53 0 .687.688.687.313 0 .532-.22L27.47 19.532q.218-.218.218-.53zM26 13l13 13-26 26H0V39zm21.344 3q0 1.656-1.156 2.813L41 24 28 11l5.188-5.156Q34.313 4.657 36 4.657q1.657 0 2.845 1.187l7.344 7.312q1.155 1.22 1.155 2.844z"/></svg>
